!! 00000] TT[WS
!!!OTL: Fengjian jiading
!!!ARE: Asia, China,ÿShanxi Dingxian
!! Ethnic Group: Han
!! WI, 225
!!!SCT: J0269
!!!YEM: Copyright 1995, estate of Helmut Schaffrath.
**kern
*ICvox
*Ivox
*M2/4
*k[b-]
*F:
{8cc
16cc
16cc
8b-
16a
16cc
=1
8ff
16ee
16dd
4cc
=2
8ff
16ee
16dd
8cc
16cc
16dd
=3
8f
16e
16d
4g}
=4
{8g
16g
16a
8ff
16dd
16cc
=5
16cc
16e
16g
16a
8.c
16d
=6
8f
16f
16a
16g
16f
16e
16d
=7
2c}
==
!!!AGN: Xiaodiao. Qingge, Aisu
!!!ONB: ESAC (Essen Associative Code) Database: CHINA
!!!AMT: simple duple
!!!AIN: vox
!!!EED: Helmut Schaffrath
!!!EEV: 1.0
*-
